X:2764
L:1/8
M:6/8
K:G
 D | GAB cBc | edc BAG | cBA e2 d | BGG G2 D | GAB cBc | edc BAG | cBA e2 d | BGG G3 || (e3 e2) e | 
 efg age |"^(a)" d2 e def |"^(b)" age dBG | GAB cBc | edc BAG |"^(c)" cBA e2 d | BGG G2 || 
"^(a)" d^cd def ||"^(b)" gfe dBG ||"^(c)" edc e2 d ||

